X:1
T:The Blackfly Song
M:4/4
L:1/8
K:F
 z4 z2 C2| F3/2 G/2 A3/2 B/2 c2 d3/2- c/2| A3/2 A/2 G3/2 F/2 A2 CC|\
 DD DD DD FD| A,2 C2 C2 CC| FG AB cc dc| A2 F2 A2 C3/2 C/2| DD DD DD FD|\
 A,2 C2 C2 C3/2 C/2| D4 F3 D| D3/2 C/2 E2 F3 z| A2 A3/2 G/2 F2 c3/2 c/2|\
 A3/2 G/2 A3/2 G/2 F2 D2| G2 G3/2 G/2 G2 AA| BB c2 d2 B3/2- c/2| d2 d2 d2 B2|\
 A2 A2 c2F-G| A2 G2 F2 E2| D6 z2|
